X:1
T:Pavane
T:Pavane
T:Gabriel Faure
C:Gabriel Faure
%%score 1 2 3 4
L:1/8
Q:1/4=100
M:4/4
K:Bb
V:1 treble nm="Flute" snm="Fl."
V:2 treble nm="Flute" snm="Fl."
V:3 treble nm="Flute" snm="Fl."
V:4 treble nm="Flute" snm="Fl."
V:1
 z8 |"^Solo"!mf! (g2- g>a b2- b>c' | babg a2- a>b | agaf g2- g>^f | d8) | z8 | z8 | z8 | z8 | %9
"^Soli" (g2- g>a b2- b>c' | babg a2- a>b | agaf g2- g>^f | d8) | (b2- b>c' d'2- d'>e' | %14
 d'c'd'b c'2- c'>d' | babg g2 ^f2 | g6) z2 | z8 | z8 |"^Solo\n" (d2- d>=e f2 (3efg | agba f3 =e) | %21
 z8 |"^Solo" d2 (3(^cd=e f3) (e | a6) (3(ga)g |!<(! (^f8!<)! |!>(! ^f8)!>)! | (g2- g>a b2- b>c' | %27
 babg a2- a>b | agaf g2- g>^f | d8) |!mf! (d2 d>e f2- f>g | fefd e2- e>f | edec d2- d>^c | d8) | %34
 (g2- g>a b2- b>c' | babg a2- a>b | agaf g2- g>^f | d8) | (b2- b>c' d'2- d'>e' | %39
 d'c'd'b c'2- c'>d' | (ba)bg g2- g>^f | g6) z2 | (babg g2 ^f2 | !fermata!g8) |] %44
V:2
!p! z .B.d.B z .B.d.B | z .B.d.B z .d.g.d | z .c.f.c z .c.f.c | z .B.e.B z .B.e.B | %4
 z .A.^f.A z .A.f.A | z4 b4- | b4 ^g4- | g4 =g4 | ^f8 | z .B.d.B z .B.d.B | z .c.f.c z .c.f.c | %11
 z .B.e.B z .B.e.B | z .A.^f.A z .A.f.A | (g2- g>^g b2- b>c' | b^gb=g ^g2- g>b | g^fgb b2 a2 | %16
 g2) z2 z4 | z .^F.A.F z .A.d.A | z .d.G.d z .^c.G.c | d4 A4 | B4 c4 | A4 c4 | A4 c4 | f4 e4 | %24
 (d8 | d8) | (g2- g>a b2- b>c' | babg a2- a>b | agaf g2- g>^f | d8) | (b2- b>c' d'2- d'>e' | %31
 d'c'd'b c'2- c'>d' | c'bc'^g (b2 a2) | a8) | (g2- g>a b2- b>c' | babg a2- a>b | (ag)af g2- g>_g | %37
 d8) | (g2- g>^g b2- b>c' | b^gb=g ^g2- g>b | g^fgB B2 A2) | =e^ffe _e=e=e_e | d2 ^c2 =c2 ^f2 | %43
 !fermata!B8 |] %44
V:3
!p! g2 z2 g2 z2 | g2 z2 e2 z2 | f2 z2 d2 z2 | e2 z2 c2 z2 | d2 z2 c2 z2 | z .g.d.g z .d.B.d | %6
 z .g.B.g z .c.^G.d | z .f.^G.f z .e.A.e | DAde cdBA | g2 z2 e2 z2 | f2 z2 d2 z2 | e2 z2 c2 z2 | %12
 d2 z2 c2 z2 | z .d.B.d z .f.B.f | z .f.B.e z .e.^G.d | z .d.G.^c z .=c.d.c | gdgb agfe | %17
 d2 z2 c2 z2 | B2 z2 A2 z2 | z .^f.a.f z .=f.c'.f | z .f.d'.f z .b.c'.b | z .f.c'.f z .b.c'.b | %22
 z .f.c'.f z .b.c'.b | z .f.c'.f z .g.c'.a | z ABG AcdB | cefd ecdB | z .B.d.B z .d.g.d | %27
 z .c.f.c z .c.f.c | z .B.e.B z .B.e.B | z .A.^f.A z .A.f.A | z .g.d.g z .d.B.d | %31
 z .g.B.g z .c.^G.c | z .f.^G.f z .g.A.g | DAde cdBA | z .B.d.B z .d.g.d | z .c.f.c z .c.f.c | %36
 z .B.e.B z .B.e.B | z .A.^f.A z .A.f.A | z .f.B.d z .f.B.f | z .f.B.e z .c.^G.d | %40
 z .d.G.^c z .=c.d.c | g8 | e4 d2 a2 | !fermata!g8 |] %44
V:4
!p! z .B.d.B z .B.d.B | z .B.d.B z .d.g.d | z .c.f.c z .c.f.c | z .B.e.B z .B.e.B | %4
 z .A.^f.A z .A.f.A |!mf!"^Solo" (d2 d>e f2- f>g | fefd e2- e>f | edec d2- d>^c | d8) | %9
"^Soli" (g2- g>a b2- b>c' | babg a2- a>b | agaf g2- g>^f | d8) | (b2- b>c' d'2- d'>e' | %14
 d'c'd'b c'2- c'>d' | babg g2 ^f2 | g6) z2 | (d2- d>=e ^f2 (3efg | agba ^f3 =e) | z8 | z8 | %21
 d2 (3(^cd=e f3) .e | z4 z2 z (=e | a6) (3(ga)g |!<(! ^f8-!<)! |!>(! f8!>)! | (g2- g>a b2- b>c' | %27
 babg a2- a>b | agaf g2- g>^f | d8) | (d'2- d'>e' f'2- f'>g' | f'e'f'd' e'2 e'>f' | %32
 e'd'e'c' d'2- d'>^c' | d'8) | (g2- g>a b2- b>c' | babg a2- a>b | agaf g2- g>^f | d8) | %38
 (b2- b>c' d'2- d'>e' | d'c'd'b c'2- c'>d' | (ba)bg g2- g>^f | g6) z2 | z8 | !fermata!g8 |] %44

